packages/foundations/assets/icons/functional/images/transportation/train_and_car_14_inverted.svg

<svg width="14" height="14" viewBox="0 0 14 14" fill="none" xmlns="http://www.w3.org/2000/svg">
<g clip-path="url(#clip0_2214_6818)">
<path fill-rule="evenodd" clip-rule="evenodd" d="M2.10739 10.6404C2.59809 10.9939 2.94669 11.234 3.15249 11.36C3.46049 11.5497 3.85039 11.689 4.31309 11.7198H5.24969V12.6004H3.85179C3.51859 12.6004 3.23999 12.3673 3.16929 12.0551C2.74929 11.7569 2.38669 11.3068 2.10739 10.6404ZM9.48119 6.65036C9.54349 6.65106 9.60579 6.65106 9.66669 6.65106L10.4327 6.65166C10.4711 6.65176 10.5077 6.65186 10.5423 6.65196L10.7238 6.65256C10.7751 6.65276 10.8167 6.65296 10.8469 6.65316C11.2508 6.65666 11.6498 6.97586 11.7415 7.33356C11.8031 7.57226 11.9333 7.80186 12.1328 8.72306L12.2434 9.09896H12.5997V10.499L12.3337 10.5004C12.3064 10.7426 12.2868 10.8973 12.2735 10.9652C12.2679 10.996 12.2595 11.0289 12.2497 11.0625V12.599H10.8497V11.9641L10.7839 11.9886C10.2225 12.0719 9.66109 12.1139 9.09969 12.1139C8.53829 12.1139 7.97689 12.0726 7.41549 11.9886L7.34969 11.9648V12.599H5.94969V11.0667C5.93149 10.9988 5.90489 10.8119 5.86849 10.4997H5.59969V9.09966H5.95529L6.06589 8.72306L6.43199 7.40986C6.54609 7.01996 6.88559 6.65036 7.43579 6.65036H9.48119ZM5.23429 1.39966C7.81309 1.39966 9.06609 3.15176 9.09829 5.60386V5.94966H7.72349C7.78019 5.75086 7.95099 4.97946 7.98179 4.77226C8.07139 4.16746 7.51069 3.32816 7.04869 3.11676C6.58669 2.90536 5.98819 2.79966 5.25179 2.79966C4.44399 2.79966 3.80139 2.92706 3.32399 3.18186C2.78289 3.47096 2.42869 4.12756 2.52319 4.77506C2.66039 5.43796 2.74789 5.83276 2.78499 5.95946C2.89629 6.34166 3.20219 6.63286 3.58369 6.72876C4.26199 6.85056 4.81849 6.91216 5.25179 6.91496C5.38199 6.91589 5.52308 6.90967 5.67132 6.89878L5.89839 6.87866L5.84705 6.98517C5.83051 7.02131 5.81493 7.05812 5.80056 7.09582L5.76139 7.21176L5.42399 8.42136C5.12299 8.49976 4.90039 8.77346 4.90039 9.09896V10.499C4.90039 10.5599 4.90879 10.618 4.92349 10.674H4.48809C4.15629 10.674 3.82589 10.5515 3.60539 10.4038C3.38489 10.2561 2.86269 9.89276 2.45599 9.59246C2.18509 9.39226 1.91839 9.18226 1.65659 8.96386C1.48579 8.04616 1.40039 7.39306 1.40039 7.00526V5.60386C1.40039 3.15106 2.59599 1.39966 5.23429 1.39966ZM7.10189 9.72126C6.91569 9.67156 6.72319 9.78286 6.67349 9.96906C6.62379 10.1553 6.73439 10.3478 6.92129 10.3975L7.59749 10.5788C7.78369 10.6285 7.97619 10.5179 8.02589 10.331C8.07559 10.1448 7.96499 9.95226 7.77809 9.90256L7.10189 9.72126ZM11.0975 9.72126L10.4213 9.90256C10.2344 9.95226 10.1238 10.1441 10.1735 10.331C10.2232 10.5179 10.415 10.6285 10.6019 10.5788L11.2781 10.3975C11.465 10.3478 11.5756 10.156 11.5259 9.96906C11.4762 9.78216 11.2844 9.67156 11.0975 9.72126ZM3.33589 7.55196C3.08389 7.63596 2.93759 7.89286 2.98589 8.14696L3.38069 9.33206C3.49479 9.56446 3.76569 9.68206 4.01769 9.59806C4.26969 9.51406 4.41599 9.25716 4.36769 9.00306L3.97289 7.81796C3.85879 7.58556 3.58789 7.46796 3.33589 7.55196ZM10.7797 7.69966H7.41969L7.00669 9.09966H11.1997L10.7797 7.69966Z" fill="#1A1C1F"/>
</g>
<defs>
<clipPath id="clip0_2214_6818">
<rect width="14" height="14" fill="white"/>
</clipPath>
</defs>
</svg>

<svg xmlns="http://www.w3.org/2000/svg" width="14" height="14" fill="none"><g clip-path="url(#a)"><path fill="#1A1C1F" fill-rule="evenodd" d="M2.107 10.64q.737.531 1.045.72c.308.19.698.329 1.161.36h.937v.88H3.852a.7.7 0 0 1-.683-.545c-.42-.298-.782-.748-1.062-1.415m7.374-3.99.186.001h.766l.11.001h.18l.124.001c.404.004.803.323.895.68.061.24.191.469.39 1.39l.111.376h.357v1.4l-.266.001a8 8 0 0 1-.06.465 1 1 0 0 1-.024.098v1.536h-1.4v-.635l-.066.025a11.5 11.5 0 0 1-3.369 0l-.065-.024v.634h-1.4v-1.532a6 6 0 0 1-.082-.567H5.6V9.1h.355l.11-.377.367-1.313c.114-.39.454-.76 1.004-.76zM5.234 1.4c2.58 0 3.832 1.752 3.864 4.204v.346H7.723c.057-.2.228-.97.259-1.178.09-.605-.471-1.444-.933-1.655Q6.357 2.8 5.252 2.8q-1.211 0-1.928.382a1.59 1.59 0 0 0-.8 1.593q.205.995.261 1.184c.111.383.417.674.799.77q1.017.182 1.668.186.196 0 .42-.016l.226-.02-.05.106-.047.11-.04.117-.337 1.21a.7.7 0 0 0-.524.677v1.4q.001.09.023.175h-.435c-.332 0-.662-.122-.883-.27s-.742-.511-1.149-.812q-.406-.3-.8-.628Q1.4 7.588 1.4 7.005V5.604C1.4 3.15 2.596 1.4 5.234 1.4M7.102 9.72a.35.35 0 0 0-.18.677l.675.18a.35.35 0 0 0 .181-.675zm3.996 0-.677.182a.35.35 0 1 0 .18.676l.677-.181a.35.35 0 1 0-.18-.677M3.336 7.552a.525.525 0 0 0-.35.595l.395 1.185a.525.525 0 0 0 .987-.329l-.395-1.185a.525.525 0 0 0-.637-.266m7.444.148H7.42l-.413 1.4H11.2z" clip-rule="evenodd"/></g><defs><clipPath id="a"><path fill="#fff" d="M0 0h14v14H0z"/></clipPath></defs></svg>
